X:6651
T:Habanera
R:Habanera
C:Tradicional
S:Msica Tradicional Asturiana, (C) Tello & Tito. Asturies, 2001.
S:http://pagina.de/MusTradAst <telloytito@asturies.org>
A:Asturies
Z:Danzas y Bailes I
M:2/4
L:1/8
Q:1/4=72
K:C
|G/AG/ EF|G/AB/ cd|e/cd/ BG|F4|
|F/GF/ DE|F/GA/ Bc|d/Bc/ AF|E4|
|G/AG/ EF|G/AB/ cd|e/ee/ de|f4|
|A/AA/ Ad|c/GG/ Gc|B/BB/ AB||c>G Gc|
|B4-|B>F FG|F4-|F>E EG|
|G/FF/ FA|A/Gc/ BA|G4-|G>G Gc|
|B4|B>F FA|G4-|G>G cB|
|A/AA/ dc|B/BB/ ed|c>E EG|c2 c2|
